!!!COM: Robert Schumann
!!!CNT: Deutsch
!!!TXO: Deutsch
!!!OTL: "Herbstlied"
!!!LYR: von der Neun
!!!OPR: Sechs Gesa2nge
!!!OPS: Op. 89
!!!ONM: No. 3
!!!ENC: Leigh VanHandel
!!!YOR: Schumann Lieder - Max Friedlaender, ed.,
!!!YOR: New York: C. F. Peters, Vol. 3
!!!ODT: 1850/
**kern	**silbe
*staff1	*
*clefG2	*
*k[f#c#g#d#]	*
*met(C)	*
*M4/4	*
*MM[Massig]	*
=1	.
1r	.
=2	.
2r	.
{4g#	{Durch
4cc#	die
=3	=3
8.b#	Tan-
32cc#	|
32dd#	|
4cc#}	-nen}
2r	.
=4	=4
4r	.
{8.g#	{und
16g#	die
4ee	Lin-
4cc#	-den
=5	=5
2a}	spinnt}
4r	.
{4a	{schon
=6	=6
[2cc#	Pur-
8cc#]	|
8b	-pur
8a	her
8g#	und
=7	=7
2a}	hin;}
4r	.
{8a	{will
8b	mich
=8	=8
4a	Weh-
4g#}	-mut}
4r	.
{12e	{u2-
12g#	|
12f#	-ber-
=9	=9
4e	-win-
4d#}	-den,}
4r	.
{8.c#	{dass
16cc#	ich
=10	=10
2.b	bald
4f##	im
=11	=11
4.a#	Herb-
8g#	-ste
4g#}	bin.}
4r	.
=12	=12
1r	.
=13	=13
2r	.
{4ff#	{Nim-
4b}	-mer!}
=14	=14
4r	.
{8cc#	{denn
8cc#	vom
a#q	Wal-
cc#q	|
4b	|
8an	|
8a	-de
=15	=15
4ee	klin-
4e}	-gen}
2r	.
=16	=16
4r	.
{2a	{Ma2r-
8f#	-lein
8g#	|
=17	=17
4.a	mir
8a	und
aq	Spru2-
4.ff#	|
8dd#	-che-
=18	=18
4ee}	-lein}
4r	.
2r	.
=19	=19
1r	.
=20	=20
4r	.
{8b	{die
8b	mir
4.ggn	su2-
8ee#	-sse
=21	=21
4.ee#	Tro2-
8ff#	-stung
4ff#	bring-
4cc#}	-gen}
=22	=22
2r	.
4r	.
{8f##	{ob
8f##	er-
=23	=23
4.f##	storb-
8g#	-nem
4b#	Son-
4dd#	-nen-
=24	=24
2ee}	-schein.}
2r	.
=25	=25
4r	.
{4a	{Ja,
4r	.
8r	.
8d#	er-
=26	=26
4f#	-stor-
4e}	-ben}
2r	.
=27	=27
4r	.
{2f#	{ist
8a	|
8a	die
=28	=28
4a	Son-
4g#}	-ne,}
2r	.
=29	=29
4r	.
{8f##	{und
8f##	irh
4cc#	Strahl
4f##	ist
=30	=30
4.f##	oh-
8g#	-ne
2g#}	Macht!}
=31	=31
1r	.
=32	=32
*k[f#c#g#d#a#e#b#]	*
2r	.
{4a#	{Den-
4e#	-noch
=33	=33
4.f#	spricht
8f#	von
4a#	fer-
4dd#	-ner
=34	=34
4cc#	Won-
4b#	-ne
4a#	grei-
4g#	-ser
=35	=35
4.cc#	Wip-
8g##	-fel
4a#	Far-
4f#	-ben-
=36	=36
2e#}	-pracht,}
{4e#	{den-
4a#	-noch
=37	=37
4g#}	spricht}
4r	.
2r	.
=38	=38
4r	.
{4d#	von
4e#	fer-
8b#	|
8a#	-ner
=39	=39
4g#	Won-
4d#}	-ne}
2r	.
=40	=40
2r	.
{4.g##	{grei-
8g##	-ser
=41	=41
2a#	Wip-
2f#	-fel
=42	=42
2.cc#	Far-
4a#	-ben-
=43	=43
2g#}	-pracht,}
2r	.
=44	=44
{2.e#	{grei-
4cc#	-ser
=45	=45
2ee#	Wip-
2g#	-fel
=46	=46
2.dd#	Far-
4cc#	-ben
=47	=47
2cc#}	pracht.}
2r	.
==	==
*-	*-
